packages/icons/svg/Store_StoreLM_32px.svg

<svg xmlns="http://www.w3.org/2000/svg" viewBox="0 0 32 32"><path d="M23 11l-5.59-5.59a2 2 0 00-2.82 0L9 11H5a2 2 0 00-2 2v12a2 2 0 002 2h22a2 2 0 002-2V13a2 2 0 00-2-2zm-3 14h-3.5v-5H20zm-4.5 0H12v-5h3.5zM27 25h-6v-5.5a.5.5 0 00-.5-.5h-9a.5.5 0 00-.5.5V25H5V13h4.83l.58-.59L16 6.83l5.59 5.58.58.59H27z"/><path d="M16.71 10.71a1 1 0 00-1.42 0l-3.58 3.58a1 1 0 00.7 1.71h7.18a1 1 0 00.7-1.71z"/></svg>

<svg xmlns="http://www.w3.org/2000/svg" viewBox="0 0 32 32"><defs></defs><g id="Icon"><path  d="M23,11,17.41,5.41a2,2,0,0,0-2.82,0L9,11H5a2,2,0,0,0-2,2V25a2,2,0,0,0,2,2H27a2,2,0,0,0,2-2V13a2,2,0,0,0-2-2ZM20,25H16.5V20H20Zm-4.5,0H12V20h3.5ZM27,25H21V19.5a.5.5,0,0,0-.5-.5h-9a.5.5,0,0,0-.5.5V25H5V13H9.83l.58-.59L16,6.83l5.59,5.58.58.59H27Z"/><path  d="M16.71,10.71a1,1,0,0,0-1.42,0l-3.58,3.58a1,1,0,0,0,.7,1.71h7.18a1,1,0,0,0,.7-1.71Z"/></g></svg>
